X: 1
T: Horse's Leotard, The
M: 6/8
L: 1/8
R: jig
K: Edor
|: E3 BAF | ABc dAF | E3 BAF | A2B AFD |
E3 BAF | ABc d2 e | fed edB | A2B AFD :|
|:Bcd ede | fed e2 d | Bcd e2f | gfe dBA |
[1 Bcd ede | fed e2 d | ABc d2 B | AFB AFD :|
[2 gfe fed | edB d2 B | AFA d2 B | A2B AFD ||
